dist/svg/u1F6E9.svg

<?xml version="1.0" encoding="UTF-8"?><svg id="Layer_1" xmlns="http://www.w3.org/2000/svg" viewBox="0 0 40 40"><path d="M33.00281,34.9913l3.53641-3.48313c1.48819-1.4696,1.50326-3.86737,.03366-5.35556L14.01591,3.31033c-1.4696-1.48819-3.86737-1.50326-5.35556-.03366l-3.53641,3.48313,27.87887,28.2315Z" style="fill:#ff8f00;"/><path d="M13.37772,37.43761L2.70157,26.62642c-.61224-.61998-.43327-1.65818,.35121-2.03739l4.05179-1.9586c.62163-.30049,1.36555-.17225,1.85068,.31903l8.17772,8.28116c.48514,.49128,.60402,1.23675,.29574,1.85455l-2.00937,4.02686c-.38904,.77965-1.4294,.94556-2.04164,.32558Z" style="fill:#ff8f00;"/><g><rect x="28.62263" y="9.76191" width="1.04437" height="2.23063" transform="translate(16.40578 -17.50325) rotate(45.36008)" style="fill:#703f00;"/><path d="M24.47136,4.96914h0c.2947-.29102,.77411-.27202,1.04486,.0414l4.27428,4.94789-.3971,.39214-4.89377-4.33613c-.30999-.27467-.32296-.75428-.02826-1.0453Z" style="fill:#703f00;"/><path d="M34.85311,15.48221h0c.2947-.29102,.28173-.77063-.02826-1.0453l-4.89377-4.33613-.3971,.39214,4.27428,4.94789c.27075,.31342,.75016,.33241,1.04486,.0414Z" style="fill:#703f00;"/></g><path d="M7.85414,32.49186h0c-.3685-.3685-.424-.94654-.13236-1.37843L19.01093,14.39587c.38241-.54972,.87638-1.01267,1.4497-1.35867l4.91149-2.96412c.63945-.38591,1.45965-.28601,1.98778,.24211l2.21057,2.21057c.52867,.52867,.62817,1.34994,.24103,1.98956l-3.02783,5.00251c-.31658,.52304-.73084,.98028-1.22021,1.34678l-16.30398,11.74084c-.43295,.31177-1.02808,.26367-1.40534-.11358Z" style="fill:#ffc74d;"/><rect width="40" height="40" style="fill:none;"/></svg>

<svg id="Layer_1" data-name="Layer 1" xmlns="http://www.w3.org/2000/svg" viewBox="0 0 40 40"><defs><style>.cls-1{fill:#ff8f00;}.cls-2{fill:#703f00;}.cls-3{fill:#ffc74d;}.cls-4{fill:none;}</style></defs><path class="cls-1" d="M33,34.991l3.536-3.483a3.787,3.787,0,0,0,.034-5.355L14.016,3.31A3.787,3.787,0,0,0,8.66,3.277L5.124,6.76Z"/><path class="cls-1" d="M13.378,37.438,2.7,26.626a1.27,1.27,0,0,1,.351-2.037L7.105,22.63a1.614,1.614,0,0,1,1.85.319l8.178,8.282a1.614,1.614,0,0,1,.3,1.854l-2.01,4.027A1.27,1.27,0,0,1,13.378,37.438Z"/><rect class="cls-2" x="28.623" y="9.762" width="1.044" height="2.231" transform="translate(16.406 -17.503) rotate(45.36)"/><path class="cls-2" d="M24.471,4.969h0a.716.716,0,0,1,1.045.042L29.79,9.958l-.4.393L24.5,6.014A.716.716,0,0,1,24.471,4.969Z"/><path class="cls-2" d="M34.853,15.482h0a.715.715,0,0,0-.028-1.045L29.931,10.1l-.4.392,4.274,4.948A.716.716,0,0,0,34.853,15.482Z"/><path class="cls-3" d="M7.854,32.492h0a1.089,1.089,0,0,1-.132-1.379L19.011,14.4a4.752,4.752,0,0,1,1.45-1.359l4.911-2.964a1.624,1.624,0,0,1,1.988.242l2.21,2.211a1.622,1.622,0,0,1,.241,1.989l-3.027,5a4.773,4.773,0,0,1-1.221,1.347L9.259,32.6A1.088,1.088,0,0,1,7.854,32.492Z"/><rect class="cls-4" width="40" height="40"/></svg>
